img/clothes-theme.svg

<svg xmlns="http://www.w3.org/2000/svg" width="170" height="149"><path fill-rule="evenodd" fill="#F5EEE3" d="M165.983 23.619L139.431 2.334C137.545.821 135.207 0 132.795 0h-95.59c-2.411 0-4.75.821-6.635 2.334L4.017 23.619C.542 26.404-.83 31.066.576 35.296l10.621 31.929c1.047 3.143 3.498 5.623 6.63 6.698 1.123.385 2.287.577 3.447.577 1.848 0 3.682-.483 5.31-1.424v65.281c0 5.878 4.756 10.643 10.621 10.643h95.59c5.865 0 10.621-4.765 10.621-10.643V73.076c1.628.941 3.462 1.424 5.311 1.424 1.159 0 2.323-.192 3.446-.577 3.132-1.075 5.583-3.555 6.63-6.698l10.621-31.929c1.406-4.23.034-8.892-3.441-11.677zm-61.045-12.976C102.005 16.822 94.218 21.286 85 21.286c-9.218 0-17.005-4.464-19.938-10.643h39.876zm43.789 53.214l-15.932-10.642v85.142h-95.59V53.215L21.274 63.857 10.652 31.929l26.553-21.286h22.181C62.347 19.805 72.642 26.607 85 26.607s22.653-6.802 25.614-15.964h22.181l26.553 21.286-10.621 31.928z"/></svg>

﻿<svg 
 xmlns="http://www.w3.org/2000/svg"
 xmlns:xlink="http://www.w3.org/1999/xlink"
 width="170px" height="149px">
<path fill-rule="evenodd"  fill="rgb(245, 238, 227)"
 d="M165.983,23.619 L139.431,2.334 C137.545,0.821 135.207,0.000 132.795,0.000 L37.205,0.000 C34.794,0.000 32.455,0.821 30.570,2.334 L4.017,23.619 C0.542,26.404 -0.830,31.066 0.576,35.296 L11.197,67.225 C12.244,70.368 14.695,72.848 17.827,73.923 C18.950,74.308 20.114,74.500 21.274,74.500 C23.122,74.500 24.956,74.017 26.584,73.076 L26.584,138.357 C26.584,144.235 31.340,149.000 37.205,149.000 L132.795,149.000 C138.660,149.000 143.416,144.235 143.416,138.357 L143.416,73.076 C145.044,74.017 146.878,74.500 148.727,74.500 C149.886,74.500 151.050,74.308 152.173,73.923 C155.305,72.848 157.756,70.368 158.803,67.225 L169.424,35.296 C170.830,31.066 169.458,26.404 165.983,23.619 ZM104.938,10.643 C102.005,16.822 94.218,21.286 85.000,21.286 C75.782,21.286 67.995,16.822 65.062,10.643 L104.938,10.643 ZM148.727,63.857 L132.795,53.215 L132.795,138.357 L37.205,138.357 L37.205,53.215 L21.274,63.857 L10.652,31.929 L37.205,10.643 L59.386,10.643 C62.347,19.805 72.642,26.607 85.000,26.607 C97.358,26.607 107.653,19.805 110.614,10.643 L132.795,10.643 L159.348,31.929 L148.727,63.857 Z"/>
</svg>
